svg/SJJB-OpenStreetMapIcons/amenity/playground.svg

<?xml version="1.0" encoding="UTF-8" standalone="no"?>
<!-- Created with Inkscape (http://www.inkscape.org/) -->

<svg
   xmlns:dc="http://purl.org/dc/elements/1.1/"
   xmlns:cc="http://creativecommons.org/ns#"
   xmlns:rdf="http://www.w3.org/1999/02/22-rdf-syntax-ns#"
   xmlns:svg="http://www.w3.org/2000/svg"
   xmlns="http://www.w3.org/2000/svg"
   xmlns:sodipodi="http://sodipodi.sourceforge.net/DTD/sodipodi-0.dtd"
   xmlns:inkscape="http://www.inkscape.org/namespaces/inkscape"
   version="1.0"
   width="580"
   height="580"
   id="svg2"
   sodipodi:version="0.32"
   inkscape:version="0.47 r22583"
   sodipodi:docname="amenity_playground.svg"
   inkscape:output_extension="org.inkscape.output.svg.inkscape"
   inkscape:export-filename="C:\Users\peter\OSM\Entwürfe\amenity_playground.png"
   inkscape:export-xdpi="2.4790845"
   inkscape:export-ydpi="2.4790845">
  <metadata
     id="metadata10">
    <rdf:RDF>
      <cc:Work
         rdf:about="">
        <dc:format>image/svg+xml</dc:format>
        <dc:type
           rdf:resource="http://purl.org/dc/dcmitype/StillImage" />
        <cc:license
           rdf:resource="" />
        <dc:language>en</dc:language>
        <dc:title />
      </cc:Work>
    </rdf:RDF>
  </metadata>
  <sodipodi:namedview
     inkscape:window-height="888"
     inkscape:window-width="1151"
     inkscape:pageshadow="2"
     inkscape:pageopacity="0.0"
     guidetolerance="10.0"
     gridtolerance="10.0"
     objecttolerance="10.0"
     borderopacity="1.0"
     bordercolor="#666666"
     pagecolor="#ffffff"
     id="base"
     showgrid="false"
     inkscape:zoom="0.57"
     inkscape:cx="311.82729"
     inkscape:cy="290"
     inkscape:window-x="0"
     inkscape:window-y="24"
     inkscape:current-layer="svg2"
     inkscape:window-maximized="0" />
  <defs
     id="defs4">
    <inkscape:perspective
       sodipodi:type="inkscape:persp3d"
       inkscape:vp_x="0 : 290 : 1"
       inkscape:vp_y="0 : 1000 : 0"
       inkscape:vp_z="580 : 290 : 1"
       inkscape:persp3d-origin="290 : 193.33333 : 1"
       id="perspective12" />
    <inkscape:perspective
       id="perspective2539"
       inkscape:persp3d-origin="16 : 10.666667 : 1"
       inkscape:vp_z="32 : 16 : 1"
       inkscape:vp_y="0 : 1000 : 0"
       inkscape:vp_x="0 : 16 : 1"
       sodipodi:type="inkscape:persp3d" />
    <inkscape:perspective
       id="perspective18697"
       inkscape:persp3d-origin="0.5 : 0.33333333 : 1"
       inkscape:vp_z="1 : 0.5 : 1"
       inkscape:vp_y="0 : 1000 : 0"
       inkscape:vp_x="0 : 0.5 : 1"
       sodipodi:type="inkscape:persp3d" />
    <inkscape:perspective
       id="perspective18782"
       inkscape:persp3d-origin="0.5 : 0.33333333 : 1"
       inkscape:vp_z="1 : 0.5 : 1"
       inkscape:vp_y="0 : 1000 : 0"
       inkscape:vp_x="0 : 0.5 : 1"
       sodipodi:type="inkscape:persp3d" />
    <inkscape:perspective
       id="perspective2832"
       inkscape:persp3d-origin="0.5 : 0.33333333 : 1"
       inkscape:vp_z="1 : 0.5 : 1"
       inkscape:vp_y="0 : 1000 : 0"
       inkscape:vp_x="0 : 0.5 : 1"
       sodipodi:type="inkscape:persp3d" />
    <inkscape:perspective
       id="perspective2832-1"
       inkscape:persp3d-origin="0.5 : 0.33333333 : 1"
       inkscape:vp_z="1 : 0.5 : 1"
       inkscape:vp_y="0 : 1000 : 0"
       inkscape:vp_x="0 : 0.5 : 1"
       sodipodi:type="inkscape:persp3d" />
  </defs>
  <g
     id="g1327"
     style="opacity:1">
    <path
       d="M 66.275,1.768 C 24.94,1.768 1.704,23.139 1.704,66.804 L 1.704,516.927 C 1.704,557.771 22.598,579.156 63.896,579.156 L 515.92,579.156 C 557.227,579.156 578.149,558.84 578.149,516.927 L 578.149,66.804 C 578.149,24.203 557.227,1.768 514.627,1.768 C 514.624,1.768 66.133,1.625 66.275,1.768 z"
       style="fill:#111111;stroke:#eeeeee;stroke-width:3.40799999000000000"
       id="path1329" />
  </g>
  <path
     d="M 44.421016,269.96274 540.35091,367.8097"
     style="fill:#ffffff;fill-opacity:1;stroke:#ffffff;stroke-width:34.5243187;stroke-linecap:round;stroke-linejoin:miter;stroke-miterlimit:1.10000002;stroke-opacity:1;stroke-dasharray:none"
     id="path2383" />
  <path
     d="m 292.38579,322.02486 -52.29327,109.83729 104.58725,0 -52.29398,-109.83729 z"
     style="fill:#ffffff;fill-opacity:1;fill-rule:evenodd;stroke:#ffffff;stroke-width:2.0225687px;stroke-linecap:butt;stroke-linejoin:miter;stroke-opacity:1"
     id="path2385" />
  <g
     transform="matrix(2.1357106,0.90429401,-0.84164613,2.2946826,-206.63356,-1194.9871)"
     id="g3185"
     style="fill:#ffffff;fill-opacity:1;stroke:#ffffff;stroke-opacity:1">
    <path
       d="m 338.53918,463.22191 c -8.9525,1.66739 -20.95672,48.62705 -20.95672,48.62705 l 34.61374,-4.78652 c 0,0 -4.32951,15.51183 -8.18502,27.01742 -2.40466,7.17586 5.60707,9.49056 9.63988,1.52914 7.449,-14.70555 13.0522,-30.95967 13.0522,-30.95967 0,0 -18.70966,-43.18825 -28.16408,-41.42742 z"
       style="fill:#ffffff;fill-opacity:1;fill-rule:evenodd;stroke:#ffffff;stroke-width:1.33470964px;stroke-linecap:butt;stroke-linejoin:miter;stroke-opacity:1"
       id="path3181" />
    <path
       d="m 286.86472,449.50504 c 0.004,5.13117 -3.71051,9.29292 -8.29328,9.29292 -4.58277,0 -8.29684,-4.16175 -8.29328,-9.29292 -0.004,-5.13117 3.71051,-9.29292 8.29328,-9.29292 4.58277,0 8.29684,4.16175 8.29328,9.29292 z"
       transform="matrix(-1.664894,-0.163643,-0.2881576,1.3383147,941.37379,-110.14043)"
       style="fill:#ffffff;fill-opacity:1;stroke:#ffffff;stroke-width:5.9000001;stroke-miterlimit:4;stroke-opacity:1;stroke-dasharray:none"
       id="path3183" />
  </g>
  <g
     transform="matrix(-2.3075369,-0.23175279,-0.36219803,2.4172678,1457.3558,-786.99777)"
     id="g3193"
     style="fill:#ffffff;fill-opacity:1;stroke:#ffffff;stroke-opacity:1">
    <path
       d="m 338.53918,463.22191 c -8.9525,1.66739 -20.95672,48.62705 -20.95672,48.62705 l 34.61374,-4.78652 c 0,0 -4.32951,15.51183 -8.18502,27.01742 -2.40466,7.17586 5.60707,9.49056 9.63988,1.52914 7.449,-14.70555 13.0522,-30.95967 13.0522,-30.95967 0,0 -18.70966,-43.18825 -28.16408,-41.42742 z"
       style="fill:#ffffff;fill-opacity:1;fill-rule:evenodd;stroke:#ffffff;stroke-width:1.33470964px;stroke-linecap:butt;stroke-linejoin:miter;stroke-opacity:1"
       id="path3195" />
    <path
       d="m 286.86472,449.50504 c 0.004,5.13117 -3.71051,9.29292 -8.29328,9.29292 -4.58277,0 -8.29684,-4.16175 -8.29328,-9.29292 -0.004,-5.13117 3.71051,-9.29292 8.29328,-9.29292 4.58277,0 8.29684,4.16175 8.29328,9.29292 z"
       transform="matrix(-1.664894,-0.163643,-0.2881576,1.3383147,941.37379,-110.14043)"
       style="fill:#ffffff;fill-opacity:1;stroke:#ffffff;stroke-width:5.9000001;stroke-miterlimit:4;stroke-opacity:1;stroke-dasharray:none"
       id="path3197" />
  </g>
</svg>

<svg xmlns="http://www.w3.org/2000/svg" viewBox="0 0 580 580" xmlns:xlink="http://www.w3.org/1999/xlink"><path d="m66.28 1.768c-41.34 0-64.57 21.371-64.57 65.04v450.12c0 40.844 20.894 62.23 62.19 62.23h452.02c41.31 0 62.23-20.316 62.23-62.23v-450.12c0-42.601-20.922-65.04-63.52-65.04-.003 0-448.49-.143-448.35 0z" fill="#111" stroke="#eee" stroke-width="3.408"/><g fill="#fff" stroke="#fff"><path d="m44.42 269.96l495.93 97.85" stroke-linecap="round" stroke-width="34.524" stroke-miterlimit="1.1"/><path d="m292.39 322.02l-52.29 109.84h104.59l-52.29-109.84z" fill-rule="evenodd" stroke-width="2.023"/><g transform="matrix(2.13571.90429-.84165 2.29468-206.63-1194.99)"><path d="m338.54 463.22c-8.952 1.667-20.957 48.627-20.957 48.627l34.614-4.787c0 0-4.33 15.512-8.185 27.02-2.405 7.176 5.607 9.491 9.64 1.529 7.449-14.706 13.05-30.96 13.05-30.96 0 0-18.71-43.19-28.16-41.43z" fill="#fff" fill-rule="evenodd" stroke="#fff" stroke-width="1.335" id="0"/><path d="m286.86 449.51c.004 5.131-3.711 9.293-8.293 9.293-4.583 0-8.297-4.162-8.293-9.293-.004-5.131 3.711-9.293 8.293-9.293 4.583 0 8.297 4.162 8.293 9.293z" transform="matrix(-1.66489-.16364-.28816 1.33831 941.37-110.14)" fill="#fff" stroke="#fff" stroke-width="5.9" id="1"/></g><g transform="matrix(-2.30754-.23175-.3622 2.41727 1457.36-787)"><use xlink:href="#0"/><use xlink:href="#1"/></g></g></svg>
